.local/share/icons/Gruvbox-Plus-Dark/mimetypes/scalable/application-x-abiword.svg

<svg width="256" height="256" viewBox="0 0 256 256" fill="none" xmlns="http://www.w3.org/2000/svg">
<g opacity="0.4" filter="url(#filter0_f)">
<path d="M55.0839 15.5636H155.608L216.009 75.7129L216.011 224.609C216.011 233.52 208.749 240.737 199.838 240.737H55.0838C46.1734 240.737 39 233.564 39 224.654V31.6474C39 22.737 46.1734 15.5636 55.0838 15.5636H55.0839Z" fill="#282828"/>
</g>
<path d="M55.0839 15H155.608L216.009 75.1493L216.011 224.045C216.011 232.956 208.749 240.174 199.838 240.174H55.0838C46.1734 240.174 39 233 39 224.09V31.0838C39 22.1734 46.1734 15 55.0838 15H55.0839Z" fill="#ebdbb2"/>
<path opacity="0.2" d="M199.838 240.174C208.749 240.174 216.011 232.956 216.011 224.046L216.01 186.5H39V224.09C39 233 46.1734 240.174 55.0838 240.174H199.838Z" fill="url(#paint0_linear)"/>
<path fill-rule="evenodd" clip-rule="evenodd" d="M155.608 20.3191H55.0839C49.1112 20.3191 44.3191 25.1111 44.3191 31.0838V224.09C44.3191 230.063 49.1111 234.855 55.0838 234.855H199.838C205.83 234.855 210.692 229.999 210.692 224.046V75.1493L155.608 20.3191ZM155.608 15H55.0839C46.1735 15 39 22.1734 39 31.0838V224.09C39 233 46.1734 240.174 55.0838 240.174H199.838C208.749 240.174 216.011 232.956 216.011 224.045L216.009 75.1493L155.608 15Z" fill="url(#paint1_linear)"/>
<path d="M105.185 226H110.225L99.8245 198H95.0645L84.6245 226H89.7045L91.9045 219.88H102.985L105.185 226ZM101.465 215.56H93.4245L96.5445 207.16C96.8245 206.36 97.2245 205.16 97.4645 204.32C97.6645 205.16 98.0645 206.36 98.3845 207.16L101.465 215.56ZM114.513 198V226H126.553C133.473 226 135.913 221.6 135.913 217.72C135.913 215.2 134.633 212.44 131.313 211.24C133.793 210.04 134.913 207.84 134.913 205.48C134.913 201.68 132.713 198 125.953 198H114.513ZM125.313 209.28H119.313V202.44H126.073C129.393 202.44 130.073 204.2 130.073 205.84C130.073 207.88 128.513 209.28 125.313 209.28ZM126.833 221.56H119.313V213.72H125.673C130.033 213.72 131.033 215.76 131.033 217.84C131.033 219.56 130.113 221.56 126.833 221.56ZM145.393 226H149.793L154.233 208.64C154.513 207.56 154.673 206.8 154.753 206.08C154.833 206.8 154.993 207.56 155.313 208.68L159.833 226H164.233L170.273 198H165.433L162.113 214.48C161.833 215.72 161.713 216.48 161.633 217.12C161.553 216.48 161.433 215.72 161.073 214.44L156.873 198H152.793L148.673 214.48C148.353 215.76 148.193 216.52 148.113 217.16C148.033 216.52 147.873 215.76 147.633 214.48L144.313 198H139.393L145.393 226Z" fill="url(#paint2_linear)"/>
<path d="M135.999 52.0025V56.0013H183.999V52.0025H135.999ZM135.999 68.0014V72.0001H183.999V68.0014H135.999ZM135.999 84V88.003H183.999V84H135.999ZM135.999 100.003V104.002H183.999V100.003H135.999ZM72 116.002V120H183.999V116.002H72ZM72 132V136.003H183.999V132H72ZM72 148.003V152.002H183.999V148.003H72ZM72 164.002V168.001H144V164.002H72Z" fill="#665c54"/>
<path d="M96.5784 48L76.8492 100.003H72V104.002H85.9994V100.003H81.5169L86.1922 87.991H109.395L114.063 100.003H108.008V104.002H128.092V100.003H122.551L102.811 48H96.5784ZM97.7916 57.0029L108.008 84.012H87.7494L97.7916 57.0029Z" fill="url(#paint3_linear)"/>
<path opacity="0.25" d="M155.608 17V61.2306C155.608 70.141 162.867 77.1605 171.777 77.1605L216.009 77.1493V75.1493L155.608 17Z" fill="#282828"/>
<path d="M155.608 15V59.2306C155.608 68.141 162.867 75.1605 171.777 75.1605L216.009 75.1493L155.608 15Z" fill="url(#paint4_linear)"/>
<defs>
<filter id="filter0_f" x="23.8778" y="0.441412" width="207.255" height="255.418" filterUnits="userSpaceOnUse" color-interpolation-filters="sRGB">
<feFlood flood-opacity="0" result="BackgroundImageFix"/>
<feBlend mode="normal" in="SourceGraphic" in2="BackgroundImageFix" result="shape"/>
<feGaussianBlur stdDeviation="7.5611" result="effect1_foregroundBlur"/>
</filter>
<linearGradient id="paint0_linear" x1="127.506" y1="186.5" x2="127.506" y2="240.174" gradientUnits="userSpaceOnUse">
<stop stop-color="#83a598"/>
<stop offset="1" stop-color="#076678"/>
</linearGradient>
<linearGradient id="paint1_linear" x1="127.506" y1="15" x2="127.506" y2="240.174" gradientUnits="userSpaceOnUse">
<stop stop-color="#83a598"/>
<stop offset="1" stop-color="#076678"/>
</linearGradient>
<linearGradient id="paint2_linear" x1="127.5" y1="187" x2="127.5" y2="240" gradientUnits="userSpaceOnUse">
<stop stop-color="#83a598"/>
<stop offset="1" stop-color="#076678"/>
</linearGradient>
<linearGradient id="paint3_linear" x1="72" y1="48" x2="72" y2="104.002" gradientUnits="userSpaceOnUse">
<stop offset="1e-07" stop-color="#83a598"/>
<stop offset="1" stop-color="#076678"/>
</linearGradient>
<linearGradient id="paint4_linear" x1="185.808" y1="15" x2="185.808" y2="75.1605" gradientUnits="userSpaceOnUse">
<stop stop-color="#83a598"/>
<stop offset="1" stop-color="#076678"/>
</linearGradient>
</defs>
</svg>

<svg width="256" height="256" fill="none" version="1.1" viewBox="0 0 256 256" xmlns="http://www.w3.org/2000/svg">
  <path d="m55.08 15h100.5l60.4 60.15 2e-3 148.9c0 8.911-7.262 16.13-16.17 16.13h-144.8c-8.91 0-16.08-7.174-16.08-16.08v-193c0-8.91 7.173-16.08 16.08-16.08h1e-4z" fill="#ebdbb2"/>
  <path d="m199.8 240.2c8.911 0 16.17-7.218 16.17-16.13l-1e-3 -37.55h-177v37.59c0 8.91 7.173 16.08 16.08 16.08h144.8z" fill="url(#paint0_linear)" opacity=".2"/>
  <path d="m155.6 20.32h-100.5c-5.973 0-10.76 4.792-10.76 10.76v193c0 5.973 4.792 10.76 10.76 10.76h144.8c5.992 0 10.85-4.856 10.85-10.81v-148.9l-55.08-54.83zm0-5.319h-100.5c-8.91 0-16.08 7.173-16.08 16.08v193c0 8.91 7.173 16.08 16.08 16.08h144.8c8.911 0 16.17-7.218 16.17-16.13l-2e-3 -148.9-60.4-60.15z" clip-rule="evenodd" fill="url(#paint1_linear)" fill-rule="evenodd"/>
  <path d="m105.2 226h5.04l-10.4-28h-4.76l-10.44 28h5.08l2.2-6.12h11.08l2.2 6.12zm-3.72-10.44h-8.04l3.12-8.4c0.28-0.8 0.68-2 0.92-2.84 0.2 0.84 0.6 2.04 0.92 2.84l3.08 8.4zm13.05-17.56v28h12.04c6.92 0 9.36-4.4 9.36-8.28 0-2.52-1.28-5.28-4.6-6.48 2.48-1.2 3.6-3.4 3.6-5.76 0-3.8-2.2-7.48-8.96-7.48h-11.44zm10.8 11.28h-6v-6.84h6.76c3.32 0 4 1.76 4 3.4 0 2.04-1.56 3.44-4.76 3.44zm1.52 12.28h-7.52v-7.84h6.36c4.36 0 5.36 2.04 5.36 4.12 0 1.72-0.92 3.72-4.2 3.72zm18.56 4.44h4.4l4.44-17.36c0.28-1.08 0.44-1.84 0.52-2.56 0.08 0.72 0.24 1.48 0.56 2.6l4.52 17.32h4.4l6.04-28h-4.84l-3.32 16.48c-0.28 1.24-0.4 2-0.48 2.64-0.08-0.64-0.2-1.4-0.56-2.68l-4.2-16.44h-4.08l-4.12 16.48c-0.32 1.28-0.48 2.04-0.56 2.68-0.08-0.64-0.24-1.4-0.48-2.68l-3.32-16.48h-4.92l6 28z" fill="url(#paint2_linear)"/>
  <path d="m136 52v3.999h48v-3.999h-48zm0 16v3.999h48v-3.999h-48zm0 16v4.003h48v-4.003h-48zm0 16v3.999h48v-3.999h-48zm-64 16v3.998h112v-3.998h-112zm0 16v4.003h112v-4.003h-112zm0 16v3.999h112v-3.999h-112zm0 16v3.999h72v-3.999h-72z" fill="#665c54"/>
  <path d="m96.58 48-19.73 52h-4.849v3.999h14v-3.999h-4.482l4.675-12.01h23.2l4.668 12.01h-6.055v3.999h20.08v-3.999h-5.541l-19.74-52h-6.233zm1.213 9.003 10.22 27.01h-20.26l10.04-27.01z" fill="url(#paint3_linear)"/>
  <path d="m155.6 17v44.23c0 8.91 7.259 15.93 16.17 15.93l44.23-0.0112v-2l-60.4-58.15z" fill="#282828" opacity=".25"/>
  <path d="m155.6 15v44.23c0 8.91 7.259 15.93 16.17 15.93l44.23-0.0112-60.4-60.15z" fill="url(#paint4_linear)"/>
  <defs>
    <linearGradient id="paint0_linear" x1="127.5" x2="127.5" y1="186.5" y2="240.2" gradientUnits="userSpaceOnUse">
      <stop stop-color="#83a598" offset="0"/>
      <stop stop-color="#076678" offset="1"/>
    </linearGradient>
    <linearGradient id="paint1_linear" x1="127.5" x2="127.5" y1="15" y2="240.2" gradientUnits="userSpaceOnUse">
      <stop stop-color="#83a598" offset="0"/>
      <stop stop-color="#076678" offset="1"/>
    </linearGradient>
    <linearGradient id="paint2_linear" x1="127.5" x2="127.5" y1="187" y2="240" gradientUnits="userSpaceOnUse">
      <stop stop-color="#83a598" offset="0"/>
      <stop stop-color="#076678" offset="1"/>
    </linearGradient>
    <linearGradient id="paint3_linear" x1="72" x2="72" y1="48" y2="104" gradientUnits="userSpaceOnUse">
      <stop stop-color="#83a598" offset="1e-7"/>
      <stop stop-color="#076678" offset="1"/>
    </linearGradient>
    <linearGradient id="paint4_linear" x1="185.8" x2="185.8" y1="15" y2="75.16" gradientUnits="userSpaceOnUse">
      <stop stop-color="#83a598" offset="0"/>
      <stop stop-color="#076678" offset="1"/>
    </linearGradient>
  </defs>
</svg>
